svgs/sharp-regular/folder-image.svg

<svg xmlns="http://www.w3.org/2000/svg" viewBox="0 0 512 512"><!--! Font Awesome Pro 6.6.0 by @fontawesome - https://fontawesome.com License - https://fontawesome.com/license (Commercial License) Copyright 2024 Fonticons, Inc. --><path d="M224 32l48 64 192 0 48 0 0 48 0 288 0 48-48 0L48 480 0 480l0-48L0 80 0 32l48 0 176 0zm48 112l-24 0-14.4-19.2L200 80 48 80l0 352 416 0 0-288-192 0zM128 176a32 32 0 1 1 0 64 32 32 0 1 1 0-64zM96 384l0-32 88-96 37.7 41.1L296 208 416 352l0 32-144 0-96 0-80 0z"/></svg>

<svg xmlns="http://www.w3.org/2000/svg" viewBox="0 0 512 512"><!--! Font Awesome Pro 6.4.0 by @fontawesome - https://fontawesome.com License - https://fontawesome.com/license (Commercial License) Copyright 2023 Fonticons, Inc. --><path d="M224 32l48 64H464h48v48V432v48H464 48 0V432 80 32H48 224zm48 112H248l-14.4-19.2L200 80H48V432H464V144H272zM128 176a32 32 0 1 1 0 64 32 32 0 1 1 0-64zM96 384V352l88-96 37.7 41.1L296 208 416 352v32H272 176 96z"/></svg>
